X:0522
M:2/4
L:1/16
Q:1/4=120
K:C
g4 (efg).a|g4 (efg).a|g2e2f2d2  |(cBc).d (cde).f|\
g4 (efg).a|g4 (efg).a|g2e2f2d2  | c4      c4   ||

